X:194
T: Chang qi chage tiao chadeng
N: C1686
O: China, Jiangxi, Shangrao
S: IV, 251]
R: Wuge, Dengge]
M: 2/4
L: 1/16
K: G
A4B4 | A4B4 | A2B2E2G2 | B3dA2G2
E2E4G2 | A2B2A2G2 | E2A2GAGE | D8
G2D4E2 | G2EGA4 | B4E2G2 | B3dA2G2
E2E4G2 | A3BA2G2 | E2A2GAGE | D8
G2E4G2 | B3dA2G2
E2E4G2 | A3BA2G2 | E2A2GAGE | D8

